app/img/product-page/about-item-button-icon.svg

<svg width="20" height="16" viewBox="0 0 20 16" fill="none" xmlns="http://www.w3.org/2000/svg">
<path d="M18.9723 7.85769L19.1578 7.78289C19.1288 7.71105 19.0858 7.64692 19.0313 7.59335L12.2827 0.843282L12.2827 0.843266C12.0584 0.618911 11.694 0.618911 11.4696 0.843266C11.2453 1.06762 11.2453 1.43199 11.4696 1.65635C11.4696 1.65635 11.4696 1.65636 11.4696 1.65636L17.2377 7.42519L1.37579 7.42519C1.05833 7.42519 0.800789 7.68273 0.800789 8.00019C0.800789 8.31764 1.05833 8.57519 1.37579 8.57519H17.2377L11.4696 14.3433C11.3573 14.4556 11.3008 14.603 11.3008 14.7502C11.3008 14.8972 11.3572 15.0443 11.4681 15.1564L11.4692 15.1575C11.6943 15.3813 12.0573 15.3813 12.2823 15.1575L12.2827 15.1571L19.032 8.40786C19.0857 8.35411 19.1274 8.29032 19.1563 8.22261L19.1563 8.22261L19.1568 8.22132C19.2157 8.08047 19.2157 7.9214 19.1568 7.78055L18.9723 7.85769ZM18.9723 7.85769C19.0105 7.94919 19.0105 8.05269 18.9723 8.14419L18.8905 7.73544C18.9258 7.76994 18.9535 7.81119 18.9723 7.85769Z" fill="white" stroke="white" stroke-width="0.4"/>
</svg>

<svg width="20" height="16" fill="none" xmlns="http://www.w3.org/2000/svg"><path d="M18.972 7.858l.186-.075a.558.558 0 00-.127-.19L12.283.843h0a.575.575 0 00-.813.813s0 0 0 0l5.768 5.77H1.376a.575.575 0 000 1.15h15.862l-5.768 5.767a.574.574 0 00-.002.813l.001.002a.576.576 0 00.813 0h0l6.75-6.75a.59.59 0 00.124-.185h0V8.22a.572.572 0 000-.44l-.184.077zm0 0a.372.372 0 010 .286l-.082-.409a.358.358 0 01.082.123z" fill="#fff" stroke="#fff" stroke-width=".4"/></svg>
